src/components/icon/assets/qs-earn-source.svg

<svg width="12" height="13" viewBox="0 0 12 13" fill="none" xmlns="http://www.w3.org/2000/svg">
<g clip-path="url(#clip0_16672_14920)">
<path d="M6 13.5C2.12083 13.5 -1 10.3792 -1 6.5C-1 2.62083 2.12083 -0.5 6 -0.5C9.87917 -0.5 13 2.62083 13 6.5C13 10.3792 9.87917 13.5 6 13.5Z" fill="#14202C"/>
<g clip-path="url(#clip1_16672_14920)">
<path d="M5.99483 9.23047C4.48514 9.23047 3.25752 8.00361 3.25752 6.49486C3.25752 4.98611 4.48514 3.75925 5.99483 3.75925C7.50453 3.75925 8.73215 4.98611 8.73215 6.49486C8.73215 6.66506 8.71618 6.83349 8.68602 6.99482L9.60674 7.91497C9.78059 7.47528 9.87639 6.99482 9.87639 6.49486C9.87639 4.35673 8.13608 2.61572 5.99483 2.61572C3.85359 2.61572 2.11328 4.35673 2.11328 6.49486C2.11328 8.63477 3.85537 10.374 5.99483 10.374C6.48801 10.374 6.95813 10.2818 7.39276 10.1134L6.4685 9.18969C6.31416 9.21806 6.15627 9.23047 5.99483 9.23047Z" fill="white"/>
<path fill-rule="evenodd" clip-rule="evenodd" d="M8.91179 9.20864L7.50756 7.8034C7.34111 7.63526 7.29861 7.39102 7.38184 7.18572C7.41017 7.1167 7.45267 7.05122 7.50756 6.99635C7.73068 6.77335 8.09192 6.77335 8.31504 6.99635L9.71927 8.4016C9.94239 8.6246 9.94239 8.98565 9.71927 9.20864C9.68208 9.24581 9.64136 9.2759 9.59886 9.30068C9.38105 9.42456 9.09773 9.39448 8.91179 9.20864ZM7.274 7.97507L8.7101 9.4104C8.93322 9.6334 8.93322 9.99445 8.7101 10.2174C8.67468 10.2528 8.6375 10.2812 8.59677 10.3059C8.37719 10.4351 8.09033 10.4051 7.90262 10.2174L6.49839 8.8122C6.27528 8.5892 6.27528 8.22815 6.49839 8.00515C6.56745 7.93613 6.65068 7.88834 6.73745 7.8618C6.91807 7.80693 7.12171 7.8441 7.274 7.97507Z" fill="url(#paint0_linear_16672_14920)"/>
</g>
</g>
<rect x="0.25" y="0.75" width="11.5" height="11.5" rx="3.75" stroke="#242424" stroke-width="0.5"/>
<defs>
<linearGradient id="paint0_linear_16672_14920" x1="6.33105" y1="6.8291" x2="10.308" y2="7.38836" gradientUnits="userSpaceOnUse">
<stop stop-color="#FF6B00"/>
<stop offset="1" stop-color="#F9A605"/>
</linearGradient>
<clipPath id="clip0_16672_14920">
<rect y="0.5" width="12" height="12" rx="4" fill="white"/>
</clipPath>
<clipPath id="clip1_16672_14920">
<rect width="8" height="8" fill="white" transform="translate(2 2.5)"/>
</clipPath>
</defs>
</svg>

<svg xmlns="http://www.w3.org/2000/svg" width="12" height="13" fill="none" viewBox="0 0 12 13">
<g clip-path="url(#a)">
<path fill="#14202C" d="M6 13.5c-3.88 0-7-3.12-7-7s3.12-7 7-7 7 3.12 7 7-3.12 7-7 7Z"/>
<g clip-path="url(#b)">
<path fill="#fff" d="M5.995 9.23a2.74 2.74 0 0 1-2.737-2.735 2.74 2.74 0 0 1 2.737-2.736 2.74 2.74 0 0 1 2.691 3.236l.92.92c.175-.44.27-.92.27-1.42 0-2.138-1.74-3.88-3.881-3.88a3.885 3.885 0 0 0-3.882 3.88 3.885 3.885 0 0 0 5.28 3.618l-.925-.923c-.154.028-.312.04-.473.04Z"/>
<path fill="url(#c)" fill-rule="evenodd" d="M8.912 9.209 7.508 7.803a.573.573 0 0 1 0-.807.57.57 0 0 1 .807 0l1.404 1.406a.57.57 0 1 1-.807.807ZM7.274 7.975 8.71 9.41a.57.57 0 1 1-.807.807L6.498 8.812a.57.57 0 0 1 .776-.837Z" clip-rule="evenodd"/>
</g>
</g>
<rect width="11.5" height="11.5" x=".25" y=".75" stroke="#E4E4E4" stroke-width=".5" rx="3.75"/>
<defs>
<clipPath id="a"><rect width="12" height="12" y=".5" fill="#fff" rx="4"/></clipPath><clipPath id="b"><path fill="#fff" d="M2 2.5h8v8H2z"/></clipPath><linearGradient id="c" x1="6.331" x2="10.308" y1="6.829" y2="7.388" gradientUnits="userSpaceOnUse"><stop stop-color="#FF6B00"/>
<stop offset="1" stop-color="#F9A605"/></linearGradient></defs></svg>
